X:0261
T:Shurleys fancy.
M:C|
L:1/8
Q:1/2=100
I: :: :: :: ::
Z:Jack Campin * www.campin.me.uk * 2009
K:G
d/c/|BGGB AFFd|BGGB dBgd|BGGB AFFe|dBcA G/G/G G:|
B/A/|Ggfg dBcA|Ggfg d2cB|Ggfg dBec|dBcA G/G/G G:|
g   |gdde dgBc|dBgB d2B2|gdde dgBc|dgdB G/G/G G:|
D   |GBBd ceAB|GBBd c2A2|GBBd ceAc|BedB G/G/G G:|
<end>
<start>
